src/16/mimetypes/decrypted.svg

<svg xmlns="http://www.w3.org/2000/svg" width="16" height="16"><path d="M8 2C6.338 2 5 3.338 5 5v1h1V5c0-1.454.754-2 2-2s2 .546 2 2v3H3v6h10V8h-2V5c0-1.662-1.338-3-3-3zM4 9h8v4H4V9z" fill="#ed1515"/></svg>

<?xml version="1.0" encoding="UTF-8" standalone="no"?>
<!-- Created with Inkscape (http://www.inkscape.org/) -->

<svg
   xmlns:dc="http://purl.org/dc/elements/1.1/"
   xmlns:cc="http://creativecommons.org/ns#"
   xmlns:rdf="http://www.w3.org/1999/02/22-rdf-syntax-ns#"
   xmlns:svg="http://www.w3.org/2000/svg"
   xmlns="http://www.w3.org/2000/svg"
   xmlns:sodipodi="http://sodipodi.sourceforge.net/DTD/sodipodi-0.dtd"
   xmlns:inkscape="http://www.inkscape.org/namespaces/inkscape"
   width="16"
   height="16"
   id="svg2"
   version="1.1"
   inkscape:version="0.48.5 r10040"
   viewBox="0 0 16 16"
   sodipodi:docname="pdf.svg">
  <defs
     id="defs4" />
  <sodipodi:namedview
     id="base"
     pagecolor="#ffffff"
     bordercolor="#666666"
     borderopacity="1.0"
     inkscape:pageopacity="0.0"
     inkscape:pageshadow="2"
     inkscape:zoom="31.678384"
     inkscape:cx="1.5384725"
     inkscape:cy="4.6815791"
     inkscape:document-units="px"
     inkscape:current-layer="layer1"
     showgrid="true"
     inkscape:showpageshadow="false"
     borderlayer="true"
     inkscape:window-width="1874"
     inkscape:window-height="1060"
     inkscape:window-x="44"
     inkscape:window-y="-3"
     inkscape:window-maximized="1"
     units="px"
     inkscape:snap-bbox="true">
    <inkscape:grid
       type="xygrid"
       id="grid4101" />
    <sodipodi:guide
       position="2,14.000017"
       orientation="12,0"
       id="guide4071" />
    <sodipodi:guide
       position="2,2.0000174"
       orientation="0,12"
       id="guide4073" />
    <sodipodi:guide
       position="14,2.0000174"
       orientation="-12,0"
       id="guide4075" />
    <sodipodi:guide
       position="14,14.000017"
       orientation="0,-12"
       id="guide4077" />
  </sodipodi:namedview>
  <metadata
     id="metadata7">
    <rdf:RDF>
      <cc:Work
         rdf:about="">
        <dc:format>image/svg+xml</dc:format>
        <dc:type
           rdf:resource="http://purl.org/dc/dcmitype/StillImage" />
        <dc:title></dc:title>
      </cc:Work>
    </rdf:RDF>
  </metadata>
  <g
     inkscape:label="Capa 1"
     inkscape:groupmode="layer"
     id="layer1"
     transform="translate(0,-1036.3622)">
    <path
       style="fill:#ed1515;fill-opacity:1;stroke:none"
       d="M 8 2 C 6.338 2 5 3.338 5 5 L 5 6 L 6 6 L 6 5 C 6 3.5458 6.753506 3 8 3 C 9.2465 3 10 3.5458 10 5 L 10 8 L 7 8 L 6 8 L 5 8 L 4 8 L 3 8 L 3 8.75 L 3 14 L 13 14 L 13 8 L 11 8 L 11 5 C 11 3.338 9.662 2 8 2 z M 4 9 L 12 9 L 12 13 L 4 13 L 4 9 z "
       transform="translate(0,1036.3622)"
       id="rect4136-1" />
  </g>
</svg>
